src/assets/icons/spring.svg

<svg xmlns="http://www.w3.org/2000/svg" width="256" height="256" fill="none" viewBox="0 0 256 256"><rect width="256" height="256" fill="#242938" rx="60"/><path fill="#5FB832" d="M209.545 171.821C184.93 204.618 132.347 193.547 98.6353 195.139C98.6353 195.139 92.6673 195.471 86.6563 196.461C86.6563 196.461 88.9292 195.491 91.8279 194.492C115.506 186.304 126.695 184.659 141.082 177.269C168.114 163.421 195.018 133.259 200.492 101.925C190.202 132.061 158.909 157.998 130.415 168.53C110.911 175.727 75.6419 182.731 75.6368 182.734C75.6533 182.759 74.2312 181.996 74.2113 181.979C50.2253 170.309 49.5332 118.359 93.0965 101.613C112.197 94.2661 130.466 98.3015 151.114 93.387C173.136 88.151 198.642 71.644 209.009 50.063C220.631 84.5351 234.592 138.467 209.545 171.821V171.821ZM209.973 39.3809C207.043 46.343 203.466 52.6167 199.344 58.2281C181.197 39.6038 155.868 27.9999 127.871 27.9999C72.7989 27.9999 28 72.8039 28 127.866C28 156.731 40.3209 182.764 59.9644 201.012L62.1514 202.949C58.4993 199.971 57.9377 194.608 60.8977 190.952C63.8759 187.295 69.2444 186.728 72.8983 189.69C76.562 192.658 77.1202 198.035 74.1538 201.697C71.1984 205.361 65.8202 205.914 62.1614 202.958L63.6497 204.276C81.0254 218.906 103.424 227.743 127.871 227.743C180.511 227.743 223.736 186.778 227.436 135.073C230.176 109.757 222.699 77.6106 209.973 39.3809Z"/></svg>

<svg xmlns="http://www.w3.org/2000/svg" width="256" height="256" fill="none"><rect width="256" height="256" fill="#242938" rx="60"/><path fill="#5FB832" d="M209.545 171.821c-24.615 32.797-77.198 21.726-110.91 23.318 0 0-5.968.332-11.979 1.322 0 0 2.273-.97 5.172-1.969 23.678-8.188 34.867-9.833 49.254-17.223 27.032-13.848 53.936-44.01 59.41-75.344-10.29 30.136-41.583 56.073-70.077 66.605-19.504 7.197-54.773 14.201-54.778 14.204.016.025-1.406-.738-1.426-.755-23.986-11.67-24.678-63.62 18.886-80.366 19.1-7.347 37.369-3.311 58.017-8.226 22.022-5.236 47.528-21.743 57.895-43.324 11.622 34.472 25.583 88.404.536 121.758zm.428-132.44c-2.93 6.962-6.507 13.236-10.629 18.847C181.197 39.604 155.868 28 127.871 28 72.799 28 28 72.804 28 127.866c0 28.865 12.32 54.898 31.964 73.146l2.187 1.937c-3.652-2.978-4.213-8.341-1.253-11.997 2.978-3.657 8.346-4.224 12-1.262 3.664 2.968 4.222 8.345 1.256 12.007-2.956 3.664-8.334 4.217-11.993 1.261l1.489 1.318c17.375 14.63 39.774 23.467 64.221 23.467 52.64 0 95.865-40.965 99.565-92.67 2.74-25.316-4.737-57.462-17.463-95.692z"/></svg>
